src/cmd/sc_extrusiondepthfloater.svg

<svg viewBox="0 0 16 16" xmlns="http://www.w3.org/2000/svg"><path d="m14 2-4 4v8l4-4zm-4 4 3.308594-3.3984375-7.0878909-.0429687-3.7070312 3.7070312z" fill="#b3b3b3"/><path d="m6.2207031 2-4.2207031 4v8h8l4-4v-1-6-1h-1-6zm.2441407.8007812 6.4199222.0214844-3.5976566 3.1777344h-2.2871094l1-1h2l-1-2-4.8535156 1.9414062zm6.7128902.8457032.021485 6.1113281-3.199219 3.1093755v-5.867188zm-9.0937496 1.3535156h1.9160156l-1 1h-2zm-1.0839844 2h1 2 3v6h-6z" fill="#232629"/></svg>

<?xml version="1.0" encoding="UTF-8" standalone="no"?>
<svg
   xmlns:dc="http://purl.org/dc/elements/1.1/"
   xmlns:cc="http://creativecommons.org/ns#"
   xmlns:rdf="http://www.w3.org/1999/02/22-rdf-syntax-ns#"
   xmlns:svg="http://www.w3.org/2000/svg"
   xmlns="http://www.w3.org/2000/svg"
   xmlns:sodipodi="http://sodipodi.sourceforge.net/DTD/sodipodi-0.dtd"
   xmlns:inkscape="http://www.inkscape.org/namespaces/inkscape"
   viewBox="0 0 16 16"
   version="1.1"
   id="svg6"
   sodipodi:docname="sc_extrusiondepthfloater.svg"
   inkscape:export-filename="/home/jupiter007/Libreoffice yaru theme fullcolor/build/cmd/sc_extrusiondepthfloater.png"
   inkscape:export-xdpi="95"
   inkscape:export-ydpi="95"
   inkscape:version="0.92.5 (2060ec1f9f, 2020-04-08)">
  <metadata
     id="metadata12">
    <rdf:RDF>
      <cc:Work
         rdf:about="">
        <dc:format>image/svg+xml</dc:format>
        <dc:type
           rdf:resource="http://purl.org/dc/dcmitype/StillImage" />
      </cc:Work>
    </rdf:RDF>
  </metadata>
  <defs
     id="defs10" />
  <sodipodi:namedview
     pagecolor="#ffffff"
     bordercolor="#666666"
     borderopacity="1"
     objecttolerance="10"
     gridtolerance="10"
     guidetolerance="10"
     inkscape:pageopacity="0"
     inkscape:pageshadow="2"
     inkscape:window-width="1920"
     inkscape:window-height="1011"
     id="namedview8"
     showgrid="true"
     inkscape:zoom="29.5"
     inkscape:cx="8.9644003"
     inkscape:cy="7.91348"
     inkscape:window-x="0"
     inkscape:window-y="32"
     inkscape:window-maximized="1"
     inkscape:current-layer="svg6">
    <inkscape:grid
       type="xygrid"
       id="grid824" />
  </sodipodi:namedview>
  <path
     d="m14 2-4 4v8l4-4zm-4 4 3.308594-3.3984375-7.0878909-.0429687-3.7070312 3.7070312z"
     fill="#b3b3b3"
     id="path2" />
  <path
     d="M 6.2207031,2 2,6 v 8 h 8 l 4,-4 V 9 3 2 H 13 7 Z M 3,6 6.4648438,2.8007812 12.884766,2.8222656 9.2871094,6 M 13.177734,3.6464844 13.199219,9.7578125 10,12.867188 V 7 Z M 3,7 h 1 2 3 v 6 H 3 Z"
     id="path4"
     style="fill:#1463a5;fill-opacity:1"
     inkscape:connector-curvature="0"
     sodipodi:nodetypes="ccccccccccccccccccccccccccc" />
  <path
     sodipodi:nodetypes="cccccccc"
     inkscape:connector-curvature="0"
     d="M 7,6 8,5 h 2 L 9,3 4.0839844,5 H 6 L 5,6 Z"
     id="path826"
     style="fill:#000000;fill-opacity:1;stroke:#000000;opacity:0.6;stroke-width:2;stroke-miterlimit:4;stroke-dasharray:none;stroke-linejoin:round" />
  <path
     style="fill:#ffffff;fill-opacity:1"
     id="path822"
     d="M 7,6 8,5 h 2 L 9,3 4.0839844,5 H 6 L 5,6 Z"
     inkscape:connector-curvature="0"
     sodipodi:nodetypes="cccccccc" />
</svg>
